X:8
T:Margot, labourez les vignes
R:
A:
N:p 72
S:publié en 1554 par Le Roy et Balard
O:France
Z:  Eric Forgeot - http://anamnese.online.fr
M:2/4
L:1/8
Q:1/8=130
K:F
%%staves [1 2]
V:1
A c | B A G F | E C F C | F C F G | A2 A c | B A G F |
w:Mar-got, | la-bou-rez les | vi-gnes, vi-gnes, |  vi-gnes, vi-gne-|lot Mar-got,| la-bou-rez les |
E F G2 |F2 || F F | c c c c | d d c2 | A2 A c | B A G F | 
w: vi-gnes bien-tôt |
E C F C | F C F G | A2 A c | B A G F | E F G2 |F2 ||
V:2
F A | G F E D | C C F2 | c2 C2 | F2 F C | C D E F | 
w:Mar-got, | la-bou-rez les | vi-gnes, Mar-| got, Mar-| got, Mar-got,|la-bou-rez les |
G A B2 | A2 || F F | A G F E | D D E2 | F2 F A | G F E D | 
w: vi-gnes bien-tôt 
C C F2 | c2 C2 | F2 G C | C D E F | G A B2 | A2 ||
W:Margot, labourez les vignes, vignes, vignes, vignelot
W:Margot, labourez les vignes bientôt.
W:
W:En revenant de Lorraine, Margot, 
W:Rencontrai trois capitaires
W:vignes, vignes, vignelot, 
W:Margot, labourez les vignes bientôt.
W:
W:Rencontrai trois capitaires, Margot,
W:Ils m'ont saluée vilaine
W:vignes, vignes, vignelot, 
W:Margot, labourez les vignes bientôt.
W:
W:Ils m'ont saluée vilaine
W:Je suis leur fièvre quartaine
W:vignes, vignes, vignelot, 
W:Margot, labourez les vignes bientôt.

